img/arrow-left.svg

<svg width="50" height="50" viewBox="0 0 50 50" fill="none" xmlns="http://www.w3.org/2000/svg">
<path d="M43.9323 39.2774C41.7263 41.5974 39.3198 43.6274 36.6124 45.3674C33.9051 47.1073 30.897 48.5573 27.6883 49.3307C24.4796 50.104 21.0704 50.2973 17.7614 49.4273C14.4525 48.654 11.4443 46.914 9.03782 44.6907C4.22479 40.2441 1.41718 34.1541 0.414471 27.9675C-0.0868864 24.8742 -0.187158 21.6842 0.414471 18.5909C1.0161 15.4975 2.11908 12.4042 3.92397 9.79425C5.72885 7.18426 8.13537 4.86428 11.0432 3.12429C13.8508 1.48096 17.1598 0.417638 20.4687 0.12764C27.0867 -0.549023 34.1057 1.48096 39.2195 5.83094C39.8211 6.31427 40.4228 6.99093 41.0244 7.57093C41.626 8.15092 42.1274 8.73092 42.6287 9.40758C43.6314 10.6642 44.6341 11.9209 45.5366 13.2742C47.3415 15.9809 48.7453 18.8809 49.5474 21.9742C50.2493 25.0675 50.1491 28.4508 49.1464 31.4474C47.9431 34.3474 46.038 37.0541 43.9323 39.2774ZM43.7317 39.1807C45.8374 36.8607 47.6423 34.2508 48.4445 31.2541C49.2466 28.2575 49.0461 25.1642 48.1437 22.2642C47.2412 19.3642 45.6369 16.7542 43.832 14.2409C42.9295 12.9842 41.9268 11.8242 40.9241 10.6642C40.4228 10.0842 39.9214 9.50425 39.3198 8.92425C38.7181 8.44092 38.2168 7.86092 37.6152 7.37759C33.0027 3.51095 26.6856 1.48096 20.4687 1.96429C17.3603 2.25429 14.3522 3.02762 11.6449 4.47761C8.93754 5.9276 6.53102 7.95759 4.62587 10.3742C0.815553 15.3042 -0.287429 21.8775 0.915827 27.8708C1.51746 30.8674 2.62044 33.7674 4.22479 36.4741C5.82913 39.0841 7.73428 41.5007 10.1408 43.5307C12.447 45.464 15.1544 47.0107 18.1625 47.784C21.1706 48.5573 24.2791 48.654 27.3875 48.1707C33.6043 47.1073 39.42 43.724 43.7317 39.1807Z" fill="#FFF8EE"/>
<path d="M21 25L29 15L23 25L29 35L21 25Z" fill="#FFF8EE"/>
</svg>

<svg xmlns="http://www.w3.org/2000/svg" width="50" height="50" fill="#fff8ee"  xmlns:v="https://vecta.io/nano"><path d="M43.932 39.277c-2.206 2.32-4.612 4.35-7.32 6.09s-5.715 3.19-8.924 3.963-6.618.967-9.927.097c-3.309-.773-6.317-2.513-8.724-4.737-4.812-4.446-7.62-10.536-8.623-16.722-.501-3.093-.602-6.283 0-9.377s1.705-6.187 3.509-8.797a23.08 23.08 0 0 1 7.119-6.67A22.89 22.89 0 0 1 20.469.128c6.618-.677 13.637 1.353 18.751 5.703.602.483 1.203 1.16 1.805 1.74a14.2 14.2 0 0 1 1.604 1.837c1.003 1.257 2.005 2.513 2.908 3.867 1.805 2.707 3.209 5.607 4.011 8.7.702 3.093.602 6.477-.401 9.473-1.203 2.9-3.108 5.607-5.214 7.83zm-.201-.097c2.106-2.32 3.911-4.93 4.713-7.927s.602-6.09-.301-8.99-2.507-5.51-4.312-8.023c-.903-1.257-1.905-2.417-2.908-3.577-.501-.58-1.003-1.16-1.604-1.74-.602-.483-1.103-1.063-1.705-1.547-4.613-3.867-10.93-5.897-17.147-5.413-3.108.29-6.116 1.063-8.824 2.513s-5.114 3.48-7.019 5.897C.816 15.304-.287 21.878.916 27.871c.602 2.997 1.705 5.897 3.309 8.603 1.604 2.61 3.509 5.027 5.916 7.057 2.306 1.933 5.014 3.48 8.022 4.253s6.117.87 9.225.387c6.217-1.063 12.033-4.447 16.344-8.99zM21 25l8-10-6 10 6 10-8-10z"/></svg>
